css/elements/social/Instagram_Colored.svg

<svg fill="none" height="437" viewBox="0 0 436 437" width="436" xmlns="http://www.w3.org/2000/svg" xmlns:xlink="http://www.w3.org/1999/xlink"><radialGradient id="a" cx="0" cy="0" gradientTransform="matrix(0 -433.333 403.131 0 115.535 470.276)" gradientUnits="userSpaceOnUse" r="1"><stop offset="0" stop-color="#fd5"/><stop offset=".1" stop-color="#fd5"/><stop offset=".5" stop-color="#ff543e"/><stop offset="1" stop-color="#c837ab"/></radialGradient><radialGradient id="b" cx="0" cy="0" gradientTransform="matrix(38.02828798 189.93341339 -783.09010084 156.78955763 -73.8916 30.8613)" gradientUnits="userSpaceOnUse" r="1"><stop offset="0" stop-color="#3771c8"/><stop offset=".128" stop-color="#3771c8"/><stop offset="1" stop-color="#60f" stop-opacity="0"/></radialGradient><clipPath id="c"><path d="m.199951 0h435.8v436.29h-435.8z"/></clipPath><g clip-path="url(#c)"><path d="m218.108-.636475c-91.293 0-117.993.094182-123.183.524728-18.7349 1.557367-30.3929 4.507277-43.0936 10.830947-9.7879 4.8604-17.5072 10.4945-25.1256 18.3923-13.8746 14.4031-22.28343 32.1228-25.32743 53.1858-1.479958 10.2255-1.910491 12.311-1.997942 64.5417-.033636 17.41 0 40.323 0 71.057 0 91.221.100906 117.895.5381651 123.075 1.5135869 18.231 4.3725969 29.701 10.4269069 42.247 11.5706 24.017 33.669 42.046 59.7028 48.773 9.0143 2.321 18.9703 3.599 31.7517 4.205 5.415.235 60.611.403 115.84.403s110.459-.067 115.739-.336c14.8-.696 23.394-1.85 32.896-4.306 26.202-6.761 47.896-24.52 59.702-48.873 5.937-12.244 8.948-24.151 10.31-41.43.296-3.767.42-63.832.42-123.816 0-59.993-.134-119.9468-.43-123.7141-1.379-17.5582-4.39-29.3646-10.518-41.8436-5.029-10.2154-10.612-17.8441-18.718-25.6444-14.467-13.8178-32.159-22.22692-53.242-25.26765-10.215-1.476634-12.25-1.913906-64.519-2.004725z" fill="url(#a)"/><path d="m218.108-.636475c-91.293 0-117.993.094182-123.183.524728-18.7349 1.557367-30.3929 4.507277-43.0936 10.830947-9.7879 4.8604-17.5072 10.4945-25.1256 18.3923-13.8746 14.4031-22.28343 32.1228-25.32743 53.1858-1.479958 10.2255-1.910491 12.311-1.997942 64.5417-.033636 17.41 0 40.323 0 71.057 0 91.221.100906 117.895.5381651 123.075 1.5135869 18.231 4.3725969 29.701 10.4269069 42.247 11.5706 24.017 33.669 42.046 59.7028 48.773 9.0143 2.321 18.9703 3.599 31.7517 4.205 5.415.235 60.611.403 115.84.403s110.459-.067 115.739-.336c14.8-.696 23.394-1.85 32.896-4.306 26.202-6.761 47.896-24.52 59.702-48.873 5.937-12.244 8.948-24.151 10.31-41.43.296-3.767.42-63.832.42-123.816 0-59.993-.134-119.9468-.43-123.7141-1.379-17.5582-4.39-29.3646-10.518-41.8436-5.029-10.2154-10.612-17.8441-18.718-25.6444-14.467-13.8178-32.159-22.22692-53.242-25.26765-10.215-1.476634-12.25-1.913906-64.519-2.004725z" fill="url(#b)"/><path d="m218.007 56.5454c-43.847 0-49.35.1917-66.571.9755-17.188.7871-28.92 3.5082-39.186 7.5009-10.618 4.1238-19.6258 9.6402-28.5997 18.6177-8.9806 8.9742-14.4968 17.9825-18.634 28.5975-4.0026 10.269-6.727 22.005-7.5007 39.187-.7702 17.221-.972 22.728-.972 66.576s.1951 49.334.9754 66.556c.7904 17.188 3.5115 28.921 7.5007 39.187 4.127 10.619 9.6432 19.626 18.6205 28.601 8.9706 8.981 17.9778 14.51 28.5898 18.634 10.272 3.993 22.008 6.714 39.192 7.501 17.221.784 22.721.976 66.565.976 43.85 0 49.336-.192 66.557-.976 17.188-.787 28.933-3.508 39.205-7.501 10.616-4.124 19.61-9.653 28.58-18.634 8.981-8.975 14.497-17.982 18.634-28.598 3.969-10.269 6.694-22.005 7.501-39.186.774-17.222.976-22.712.976-66.56s-.202-49.351-.976-66.573c-.807-17.188-3.532-28.921-7.501-39.186-4.137-10.619-9.653-19.6273-18.634-28.6015-8.98-8.9809-17.961-14.4973-28.59-18.6177-10.292-3.9927-22.031-6.7138-39.218-7.5009-17.222-.7838-22.704-.9755-66.565-.9755zm-14.484 29.0955c4.299-.0068 9.095 0 14.484 0 43.107 0 48.216.1547 65.239.9283 15.741.7199 24.285 3.3502 29.976 5.5601 7.534 2.9264 12.906 6.4246 18.553 12.0757 5.651 5.651 9.149 11.033 12.082 18.567 2.21 5.685 4.843 14.228 5.56 29.97.773 17.02.941 22.133.941 65.221s-.168 48.201-.941 65.221c-.72 15.742-3.35 24.285-5.56 29.97-2.927 7.534-6.431 12.899-12.082 18.547-5.651 5.651-11.016 9.149-18.553 12.075-5.685 2.22-14.235 4.844-29.976 5.564-17.02.774-22.132.942-65.239.942-43.111 0-48.22-.168-65.239-.942-15.742-.727-24.285-3.357-29.98-5.567-7.534-2.926-12.916-6.424-18.566-12.075-5.6511-5.651-9.1491-11.02-12.0821-18.558-2.2099-5.684-4.8435-14.228-5.56-29.97-.7736-17.02-.9283-22.132-.9283-65.247s.1547-48.201.9283-65.221c.7198-15.742 3.3501-24.286 5.56-29.977 2.9262-7.535 6.431-12.916 12.0821-18.567 5.65-5.6512 11.032-9.1494 18.566-12.0825 5.691-2.22 14.238-4.8436 29.98-5.5668 14.893-.6727 20.665-.8746 50.755-.9082zm100.664 26.8081c-10.696 0-19.374 8.668-19.374 19.368 0 10.696 8.678 19.374 19.374 19.374s19.374-8.678 19.374-19.374-8.678-19.375-19.374-19.375zm-86.18 22.637c-45.788 0-82.911 37.125-82.911 82.914s37.123 82.897 82.911 82.897c45.787 0 82.897-37.108 82.897-82.897s-37.113-82.914-82.901-82.914zm0 29.096c29.72 0 53.816 24.094 53.816 53.818 0 29.721-24.096 53.818-53.816 53.818-29.724 0-53.817-24.097-53.817-53.818 0-29.724 24.093-53.818 53.817-53.818z" fill="#fff"/></g></svg>

<svg width="436" height="437" viewBox="0 0 436 437" fill="none" xmlns="http://www.w3.org/2000/svg">
<g clip-path="url(#clip0)">
<path d="M218.108 -0.636475C126.815 -0.636475 100.115 -0.542293 94.925 -0.111747C76.1901 1.44562 64.5321 4.39553 51.8314 10.7192C42.0435 15.5796 34.3242 21.2137 26.7058 29.1115C12.8312 43.5146 4.42237 61.2343 1.37837 82.2973C-0.101588 92.5228 -0.532121 94.6083 -0.619572 146.839C-0.653208 164.249 -0.619572 187.162 -0.619572 217.896C-0.619572 309.117 -0.518666 335.791 -0.0814069 340.971C1.43218 359.202 4.29119 370.672 10.3455 383.218C21.9161 407.235 44.0145 425.264 70.0483 431.991C79.0626 434.312 89.0186 435.59 101.8 436.196C107.215 436.431 162.411 436.599 217.64 436.599C272.869 436.599 328.099 436.532 333.379 436.263C348.179 435.567 356.773 434.413 366.275 431.957C392.477 425.196 414.171 407.437 425.977 383.084C431.914 370.84 434.925 358.933 436.287 341.654C436.583 337.887 436.707 277.822 436.707 217.838C436.707 157.845 436.573 97.8912 436.277 94.1239C434.898 76.5657 431.887 64.7593 425.759 52.2803C420.73 42.0649 415.147 34.4362 407.041 26.6359C392.574 12.8181 374.882 4.40898 353.799 1.36825C343.584 -0.108384 341.549 -0.545656 289.28 -0.636475H218.108Z" fill="url(#paint0_radial)"/>
<path d="M218.108 -0.636475C126.815 -0.636475 100.115 -0.542293 94.925 -0.111747C76.1901 1.44562 64.5321 4.39553 51.8314 10.7192C42.0435 15.5796 34.3242 21.2137 26.7058 29.1115C12.8312 43.5146 4.42237 61.2343 1.37837 82.2973C-0.101588 92.5228 -0.532121 94.6083 -0.619572 146.839C-0.653208 164.249 -0.619572 187.162 -0.619572 217.896C-0.619572 309.117 -0.518666 335.791 -0.0814069 340.971C1.43218 359.202 4.29119 370.672 10.3455 383.218C21.9161 407.235 44.0145 425.264 70.0483 431.991C79.0626 434.312 89.0186 435.59 101.8 436.196C107.215 436.431 162.411 436.599 217.64 436.599C272.869 436.599 328.099 436.532 333.379 436.263C348.179 435.567 356.773 434.413 366.275 431.957C392.477 425.196 414.171 407.437 425.977 383.084C431.914 370.84 434.925 358.933 436.287 341.654C436.583 337.887 436.707 277.822 436.707 217.838C436.707 157.845 436.573 97.8912 436.277 94.1239C434.898 76.5657 431.887 64.7593 425.759 52.2803C420.73 42.0649 415.147 34.4362 407.041 26.6359C392.574 12.8181 374.882 4.40898 353.799 1.36825C343.584 -0.108384 341.549 -0.545656 289.28 -0.636475H218.108Z" fill="url(#paint1_radial)"/>
<path d="M218.007 56.5454C174.16 56.5454 168.657 56.7371 151.436 57.5209C134.248 58.308 122.516 61.0291 112.25 65.0218C101.632 69.1456 92.6242 74.662 83.6503 83.6395C74.6697 92.6137 69.1535 101.622 65.0163 112.237C61.0137 122.506 58.2893 134.242 57.5156 151.424C56.7454 168.645 56.5436 174.152 56.5436 218C56.5436 261.848 56.7387 267.334 57.519 284.556C58.3094 301.744 61.0305 313.477 65.0197 323.743C69.1467 334.362 74.6629 343.369 83.6402 352.344C92.6108 361.325 101.618 366.854 112.23 370.978C122.502 374.971 134.238 377.692 151.422 378.479C168.643 379.263 174.143 379.455 217.987 379.455C261.837 379.455 267.323 379.263 284.544 378.479C301.732 377.692 313.477 374.971 323.749 370.978C334.365 366.854 343.359 361.325 352.329 352.344C361.31 343.369 366.826 334.362 370.963 323.746C374.932 313.477 377.657 301.741 378.464 284.56C379.238 267.338 379.44 261.848 379.44 218C379.44 174.152 379.238 168.649 378.464 151.427C377.657 134.239 374.932 122.506 370.963 112.241C366.826 101.622 361.31 92.6137 352.329 83.6395C343.349 74.6586 334.368 69.1422 323.739 65.0218C313.447 61.0291 301.708 58.308 284.521 57.5209C267.299 56.7371 261.817 56.5454 217.956 56.5454H218.007ZM203.523 85.6409C207.822 85.6341 212.618 85.6409 218.007 85.6409C261.114 85.6409 266.223 85.7956 283.246 86.5692C298.987 87.2891 307.531 89.9194 313.222 92.1293C320.756 95.0557 326.128 98.5539 331.775 104.205C337.426 109.856 340.924 115.238 343.857 122.772C346.067 128.457 348.7 137 349.417 152.742C350.19 169.762 350.358 174.875 350.358 217.963C350.358 261.051 350.19 266.164 349.417 283.184C348.697 298.926 346.067 307.469 343.857 313.154C340.93 320.688 337.426 326.053 331.775 331.701C326.124 337.352 320.759 340.85 313.222 343.776C307.537 345.996 298.987 348.62 283.246 349.34C266.226 350.114 261.114 350.282 218.007 350.282C174.896 350.282 169.787 350.114 152.768 349.34C137.026 348.613 128.483 345.983 122.788 343.773C115.254 340.847 109.872 337.349 104.222 331.698C98.5709 326.047 95.0729 320.678 92.1399 313.14C89.93 307.456 87.2964 298.912 86.5799 283.17C85.8063 266.15 85.6516 261.038 85.6516 217.923C85.6516 174.808 85.8063 169.722 86.5799 152.702C87.2997 136.96 89.93 128.416 92.1399 122.725C95.0661 115.19 98.5709 109.809 104.222 104.158C109.872 98.5068 115.254 95.0086 122.788 92.0755C128.479 89.8555 137.026 87.2319 152.768 86.5087C167.661 85.836 173.433 85.6341 203.523 85.6005V85.6409ZM304.187 112.449C293.491 112.449 284.813 121.117 284.813 131.817C284.813 142.513 293.491 151.191 304.187 151.191C314.883 151.191 323.561 142.513 323.561 131.817C323.561 121.121 314.883 112.442 304.187 112.442V112.449ZM218.007 135.086C172.219 135.086 135.096 172.211 135.096 218C135.096 263.789 172.219 300.897 218.007 300.897C263.794 300.897 300.904 263.789 300.904 218C300.904 172.211 263.791 135.086 218.003 135.086H218.007ZM218.007 164.182C247.727 164.182 271.823 188.276 271.823 218C271.823 247.721 247.727 271.818 218.007 271.818C188.283 271.818 164.19 247.721 164.19 218C164.19 188.276 188.283 164.182 218.007 164.182V164.182Z" fill="white"/>
</g>
<defs>
<radialGradient id="paint0_radial" cx="0" cy="0" r="1" gradientUnits="userSpaceOnUse" gradientTransform="translate(115.535 470.276) rotate(-90) scale(433.333 403.131)">
<stop stop-color="#FFDD55"/>
<stop offset="0.1" stop-color="#FFDD55"/>
<stop offset="0.5" stop-color="#FF543E"/>
<stop offset="1" stop-color="#C837AB"/>
</radialGradient>
<radialGradient id="paint1_radial" cx="0" cy="0" r="1" gradientUnits="userSpaceOnUse" gradientTransform="translate(-73.8916 30.8613) rotate(78.678) scale(193.703 798.632)">
<stop stop-color="#3771C8"/>
<stop offset="0.128" stop-color="#3771C8"/>
<stop offset="1" stop-color="#6600FF" stop-opacity="0"/>
</radialGradient>
<clipPath id="clip0">
<rect width="435.8" height="436.29" fill="white" transform="translate(0.199951)"/>
</clipPath>
</defs>
</svg>
